X:1
T:Title
T:O Holy Night
T:Adolphe Adam
C:Composer
L:1/8
Q:3/8=70
M:6/8
K:D
V:1 treble nm="Violin" snm="Vln."
V:1
|:!pp! F3!<(! F2 F!<)! ||[M:12/8] A3- A2 A B2 B G2 B |!mp! d6!>(! A2 A F2 E!>)! | D3 F2 G A3 G2 E | %4
 D6-!pp! D4 z2 ||[M:6/8]!<(! F3 F2 F!<)! ||[M:12/8]!<(! A3- A2 A B2 B G2 B!<)! | %7
!mp! d6!<(! A2 A ^G2 F!<)! | c3 A2 B c3 d2!>(! c!>)! | F6-!p! F4 z!mp! A | A3 B3 E3 A3 | %11
 B2 A d2 F B3 A2 A | A3 B3 E3 A3 |!<(! B2 A d2 F A6!<)! |!mf! d6- d3 c2 B | c6- c3 z c2 | %16
!f! e6- e2 e B2 B | d6 d3 z d2 |!ff! f6!>(! e3- e2 A!>)! |!mf! d6- d3!>(! (c2 B)!>)! | %20
!mp! A6- A2 A B2 A | A6- A3!mf! d3 | e6-!<(! e3 A3!<)! |!f! f6- f3 e3 | %24
!>(! d6- d3/2c3/2 d2 e!>)! |1!mp! d12 :|2!mp! d6- d3 d3 ||!<(! e6- e3 A3!<)! | %28
!ff! a6- a3/2!>(!g3/2 f3/2e3/2!>)! | %29
 d6- d3/2"^rit............................"[Q:3/8=60]c3/2 d2 e |[Q:3/8=55]!pp! d12 |] %31

